symbolic/32x32/places/folder-deeporange-network.svg

<svg xmlns="http://www.w3.org/2000/svg" width="32" height="32" version="1">
 <rect style="opacity:0.2" width="28" height="18" x="2" y="11" rx="1.4" ry="1.4"/>
 <path style="fill:#e95420" d="M 2,22.6 C 2,23.376 2.6244,24 3.4,24 H 28.6 C 29.376,24 30,23.376 30,22.6 V 7.4 C 30,6.6244 29.376,6 28.6,6 H 16 C 13.9,6 13.2,3 11.1,3 H 3.4 C 2.6244,3 2,3.6244 2,4.4"/>
 <rect style="opacity:0.2" width="28" height="18" x="2" y="9" rx="1.4" ry="1.4"/>
 <rect style="fill:#e4e4e4" width="24" height="11" x="4" y="8" rx="1.4" ry="1.4"/>
 <rect style="fill:#eb6637" width="28" height="18" x="2" y="10" rx="1.4" ry="1.4"/>
 <path style="opacity:0.1;fill:#ffffff" d="M 3.4004,3 C 2.6248,3 2,3.6248 2,4.4004 V 5.4004 C 2,4.6248 2.6248,4 3.4004,4 H 11.1 C 13.2,4 13.9,7 16,7 H 28.6 C 29.375,7 30,7.6248 30,8.4004 V 7.4004 C 30,6.6248 29.375,6 28.6,6 H 16 C 13.9,6 13.2,3 11.1,3 Z"/>
 <path style="fill:#522413" d="m 16,13 c -3.3132,0 -6,2.6868 -6,6 0,3.3132 2.6868,6 6,6 3.3132,0 6,-2.6868 6,-6 0,-3.3132 -2.6868,-6 -6,-6 z m -0.4284,1.6608 c 0.0576,-0.006 0.1296,0.0036 0.1872,0 0.0072,0.0276 -0.042,0.1248 -0.1068,0.2676 -0.4164,0.9096 -0.4404,1.9752 -0.054,2.5452 0.0696,0.1032 0.1344,0.2016 0.1344,0.2136 0,0.0132 -0.0756,0.0276 -0.1608,0.0276 -0.2004,0 -0.39,-0.1224 -0.7764,-0.4296 -0.1728,-0.1356 -0.396,-0.2496 -0.4824,-0.2676 -0.1368,-0.0264 -0.1728,-0.0144 -0.348,0.1608 -0.1644,0.1644 -0.2148,0.252 -0.2148,0.402 0,0.5676 0.6744,1.02 1.9284,1.2852 1.7028,0.3612 2.1228,0.6852 2.1696,1.5804 0.0588,1.1232 -0.5388,1.9704 -1.848,2.6256 -0.156,0.078 -0.2556,0.108 -0.3216,0.1332 -0.0288,-0.0024 -0.0516,0.0036 -0.0804,0 -0.0108,-0.0336 -0.0264,-0.1152 -0.0264,-0.2676 0,-0.5964 -0.2352,-1.2096 -0.5892,-1.5528 -0.0948,-0.0924 -0.3612,-0.288 -0.5892,-0.4284 -0.228,-0.1416 -0.4584,-0.306 -0.5088,-0.3756 -0.0852,-0.1164 -0.0924,-0.1872 -0.0276,-0.402 0.1188,-0.3912 0.2604,-0.6096 0.5364,-0.8568 0.144,-0.1296 0.2892,-0.2388 0.3216,-0.2412 C 14.746,19.078 14.53,19.0132 14.206,18.946 13.8808,18.88 13.4068,18.7408 13.1608,18.652 12.712,18.49 12.106,18.148 11.8756,17.902 11.866,17.8912 11.8564,17.884 11.848,17.8756 c 0.3312,-1.3188 1.26,-2.4 2.4912,-2.9196 0.258,-0.1092 0.5232,-0.1848 0.804,-0.2412 0.1392,-0.0288 0.2844,-0.0396 0.4284,-0.054 z m 4.0176,2.0088 c 0.1008,0.0624 0.4812,0.8844 0.5892,1.2852 0.1404,0.5184 0.1296,1.4148 0,1.9284 -0.0492,0.1968 -0.1128,0.3792 -0.1332,0.402 -0.0216,0.0228 -0.0984,-0.108 -0.1884,-0.2676 -0.09,-0.1596 -0.3768,-0.498 -0.6156,-0.75 -0.69,-0.7272 -0.798,-1.1064 -0.5088,-1.6872 0.1452,-0.2928 0.7788,-0.9588 0.8568,-0.9108 z"/>
</svg>

<svg xmlns="http://www.w3.org/2000/svg" width="32" height="32" version="1"><rect style="opacity:.2" width="28" height="18" x="2" y="11" rx="1.4" ry="1.4"/><path style="fill:#e95420" d="M2 22.6c0 .776.624 1.4 1.4 1.4h25.2c.776 0 1.4-.624 1.4-1.4V7.4c0-.776-.624-1.4-1.4-1.4H16c-2.1 0-2.8-3-4.9-3H3.4C2.624 3 2 3.624 2 4.4"/><rect style="opacity:.2" width="28" height="18" x="2" y="9" rx="1.4" ry="1.4"/><rect style="fill:#e4e4e4" width="24" height="11" x="4" y="8" rx="1.4" ry="1.4"/><rect style="fill:#eb6637" width="28" height="18" x="2" y="10" rx="1.4" ry="1.4"/><path style="opacity:.1;fill:#fff" d="M3.4 3C2.625 3 2 3.625 2 4.4v1C2 4.625 2.625 4 3.4 4h7.7c2.1 0 2.8 3 4.9 3h12.6c.775 0 1.4.625 1.4 1.4v-1c0-.775-.625-1.4-1.4-1.4H16c-2.1 0-2.8-3-4.9-3z"/><path style="fill:#522413" d="M16 13a6 6 0 1 0 .001 12.001A6 6 0 0 0 16 13zm-.428 1.66c.057-.005.13.004.187 0 .007.028-.042.126-.107.268-.416.91-.44 1.976-.054 2.546.07.103.134.201.134.213 0 .013-.075.028-.16.028-.2 0-.39-.123-.777-.43-.173-.135-.396-.25-.482-.267-.137-.027-.173-.015-.348.16-.165.165-.215.252-.215.402 0 .568.674 1.02 1.928 1.286 1.703.36 2.123.685 2.17 1.58.059 1.123-.539 1.97-1.848 2.626-.156.078-.256.108-.322.133-.028-.003-.051.003-.08 0a.966.966 0 0 1-.026-.268c0-.596-.236-1.21-.59-1.553a4.397 4.397 0 0 0-.589-.428c-.228-.142-.458-.306-.509-.376-.085-.116-.092-.187-.027-.402.119-.39.26-.61.536-.856.144-.13.29-.24.322-.242.031-.002-.185-.067-.509-.134a9.043 9.043 0 0 1-1.045-.294c-.449-.162-1.055-.504-1.285-.75l-.028-.026a4.306 4.306 0 0 1 2.491-2.92c.258-.11.523-.185.804-.241.14-.029.285-.04.429-.054zm4.017 2.01c.101.062.481.884.59 1.285.14.518.129 1.415 0 1.928-.05.197-.113.38-.134.402-.021.023-.098-.108-.188-.267-.09-.16-.377-.498-.616-.75-.69-.728-.798-1.107-.509-1.688.146-.292.78-.958.857-.91z"/></svg>
